X:146
T:Intrepid THO1.146, The
T:Lass and the Money is All My Own,aka.  THO1.146, The
M:6/8
L:1/8
Z:vmp. Peter Dunk 2012.from a transcription by Fynn Titford-Mock 2006
B:Thompson's Compleat Collection of 200 Favourite Country Dances Vol.I,1758
Q:3/8=100
K:A
f|ecA ABc|d2 c B2 A|ecA ABA|B2 c d2 e|\
ecA ABc|d2 c B2 A|c/d/ec B/c/dB|A2 A A2:|
|:e|fdf ece|fdf ece|fga ecA|B2 c d2 f|\
efg agf|edc B2 A|c/d/ec B/c/dB|A2 A A2:|

